apps/www/public/images/career/icons/jobs-dark.svg

<svg width="49" height="49" viewBox="0 0 49 49" fill="none" xmlns="http://www.w3.org/2000/svg">
<rect x="0.615234" y="0.583008" width="48" height="48" rx="8" fill="#164430"/>
<path d="M38.0239 11.6172L33.7549 15.8862" stroke="#133929" stroke-width="2" stroke-miterlimit="10" stroke-linejoin="bevel"/>
<path d="M15.7236 33.5352L11.4546 37.8042" stroke="#133929" stroke-width="2" stroke-miterlimit="10" stroke-linejoin="bevel"/>
<path d="M37.833 37.9954L33.564 33.7263" stroke="#133929" stroke-width="2" stroke-miterlimit="10" stroke-linejoin="bevel"/>
<path d="M15.915 15.6951L11.646 11.426" stroke="#133929" stroke-width="2" stroke-miterlimit="10" stroke-linejoin="bevel"/>
<ellipse cx="9.5708" cy="39.6274" rx="2.5" ry="2.5" stroke="#133929" stroke-width="2" stroke-miterlimit="10" stroke-linejoin="bevel"/>
<ellipse cx="9.5708" cy="9.55298" rx="2.5" ry="2.5" stroke="#133929" stroke-width="2" stroke-miterlimit="10" stroke-linejoin="bevel"/>
<ellipse cx="6.12842" cy="24.7092" rx="2.5" ry="2.5" stroke="#133929" stroke-width="2" stroke-miterlimit="10" stroke-linejoin="bevel"/>
<ellipse cx="43.3447" cy="24.7092" rx="2.5" ry="2.5" stroke="#133929" stroke-width="2" stroke-miterlimit="10" stroke-linejoin="bevel"/>
<ellipse cx="24.7363" cy="6.10107" rx="2.5" ry="2.5" transform="rotate(90 24.7363 6.10107)" stroke="#133929" stroke-width="2" stroke-miterlimit="10" stroke-linejoin="bevel"/>
<ellipse cx="24.7363" cy="43.3174" rx="2.5" ry="2.5" transform="rotate(90 24.7363 43.3174)" stroke="#133929" stroke-width="2" stroke-miterlimit="10" stroke-linejoin="bevel"/>
<ellipse cx="39.6791" cy="39.7464" rx="2.5" ry="2.5" transform="rotate(-75 39.6791 39.7464)" stroke="#133929" stroke-width="2" stroke-miterlimit="10" stroke-linejoin="bevel"/>
<ellipse cx="39.6791" cy="9.67217" rx="2.5" ry="2.5" transform="rotate(-75 39.6791 9.67217)" stroke="#133929" stroke-width="2" stroke-miterlimit="10" stroke-linejoin="bevel"/>
<ellipse cx="24.7002" cy="23.1504" rx="5" ry="5" fill="#1B543A" stroke="#4CC38A" stroke-width="2" stroke-miterlimit="10" stroke-linejoin="bevel"/>
<path d="M17.2734 33.9437V33.9437C17.2734 30.7441 19.8672 28.1504 23.0667 28.1504H26.1647C29.3642 28.1504 31.958 30.7441 31.958 33.9437V33.9437" stroke="#4CC38A" stroke-width="2" stroke-miterlimit="10" stroke-linejoin="bevel"/>
<ellipse cx="24.7002" cy="24.6675" rx="12" ry="12" stroke="#4CC38A" stroke-width="2" stroke-miterlimit="10" stroke-linejoin="bevel"/>
<path d="M8.62195 12.1765L6.72316 21.6558M9.50586 36.7533L6.86365 27.3889" stroke="#133929" stroke-width="2" stroke-miterlimit="10" stroke-linejoin="bevel"/>
<path d="M40.0583 12.4807L42.5073 22.3351M40.0583 36.9554L42.5073 27.1" stroke="#133929" stroke-width="2" stroke-miterlimit="10" stroke-linejoin="bevel"/>
<path d="M36.7715 9.1936L27.3297 6.89027M12.4145 8.77427L22.0908 6.73403" stroke="#133929" stroke-width="2" stroke-miterlimit="10" stroke-linejoin="bevel"/>
<path d="M36.6646 40.457L27.0219 42.4319M12.3681 40.457L22.0765 42.4319" stroke="#133929" stroke-width="2" stroke-miterlimit="10" stroke-linejoin="bevel"/>
</svg>

<svg xmlns="http://www.w3.org/2000/svg" width="49" height="49" fill="none" viewBox="0 0 49 49"><rect width="48" height="48" x=".615" y=".583" fill="#164430" rx="8"/><path stroke="#133929" stroke-linejoin="bevel" stroke-miterlimit="10" stroke-width="2" d="m38.024 11.617-4.27 4.27M15.724 33.535l-4.27 4.27M37.833 37.995l-4.269-4.269M15.915 15.695l-4.269-4.269"/><circle cx="9.571" cy="39.627" r="2.5" stroke="#133929" stroke-linejoin="bevel" stroke-miterlimit="10" stroke-width="2"/><circle cx="9.571" cy="9.553" r="2.5" stroke="#133929" stroke-linejoin="bevel" stroke-miterlimit="10" stroke-width="2"/><circle cx="6.128" cy="24.709" r="2.5" stroke="#133929" stroke-linejoin="bevel" stroke-miterlimit="10" stroke-width="2"/><circle cx="43.345" cy="24.709" r="2.5" stroke="#133929" stroke-linejoin="bevel" stroke-miterlimit="10" stroke-width="2"/><circle cx="24.736" cy="6.101" r="2.5" stroke="#133929" stroke-linejoin="bevel" stroke-miterlimit="10" stroke-width="2" transform="rotate(90 24.736 6.101)"/><circle cx="24.736" cy="43.317" r="2.5" stroke="#133929" stroke-linejoin="bevel" stroke-miterlimit="10" stroke-width="2" transform="rotate(90 24.736 43.317)"/><circle cx="39.679" cy="39.746" r="2.5" stroke="#133929" stroke-linejoin="bevel" stroke-miterlimit="10" stroke-width="2" transform="rotate(-75 39.68 39.746)"/><circle cx="39.679" cy="9.672" r="2.5" stroke="#133929" stroke-linejoin="bevel" stroke-miterlimit="10" stroke-width="2" transform="rotate(-75 39.68 9.672)"/><circle cx="24.7" cy="23.15" r="5" fill="#1b543a" stroke="#4cc38a" stroke-linejoin="bevel" stroke-miterlimit="10" stroke-width="2"/><path stroke="#4cc38a" stroke-linejoin="bevel" stroke-miterlimit="10" stroke-width="2" d="M17.273 33.944c0-3.2 2.594-5.794 5.794-5.794h3.098c3.2 0 5.793 2.594 5.793 5.794"/><circle cx="24.7" cy="24.668" r="12" stroke="#4cc38a" stroke-linejoin="bevel" stroke-miterlimit="10" stroke-width="2"/><path stroke="#133929" stroke-linejoin="bevel" stroke-miterlimit="10" stroke-width="2" d="m8.622 12.177-1.899 9.479m2.783 15.097L6.864 27.39M40.058 12.48l2.45 9.855m-2.45 14.62 2.45-9.855M36.772 9.194 27.33 6.89M12.415 8.774l9.676-2.04M36.665 40.457l-9.643 1.975m-14.654-1.975 9.708 1.975"/></svg>
